X:1
T:Fahren wir froh im Nachen
T:Giovanni Gastoldi
T:Text-Neudichtung von Peter Cornelius
T:Fahren wir froh im Nachen
T:CPDL - Creative Commons Attribution Non Commercial 3.0
T:CPDL - Creative Commons Attribution Non Commercial 3.0
C:Giovanni Gastoldi
Z:Peter Cornelius
Z:CPDL - Creative Commons Attribution Non Commercial 3.0
%%score [ 1 ( 2 3 ) 4 5 ]
L:1/8
Q:1/4=120
M:2/2
K:G
V:1 treble nm="Sopr. 1"
V:2 treble nm="Sopr. 2\nAlt"
V:3 treble 
V:4 treble-8 nm="Tenor"
V:5 bass nm="Bass"
V:1
"^Allegro giocoso" B2 BB B2 d2 | B4 G4 | B2 BA B2 ^c2 | d4 d4 | BBBB B2 A2 | B4 z2 d2 | %6
w: Fah- ren wir froh im|Na- chen,|Him- mel und Er- de|la- chen,|Fa la la la la la|la, fa|
w: Rei- hen uns Paar zu|Paa- ren,|das ist ein herr- lich|Fah- ren!|||
 B2 G2 A2 A2 | G8 :: F2 FE F2 G2 | F2 F2 A2 AG | A2 B2 A2 A2 | B2 d2 d2 ^c2 | d4 d4 | A2 AG A2 B2 | %14
w: la la la la|la!|Da tönt ein Stimm- lein|lei- se: "Sa- get, wo-|hin die Rei- se?"|Kommt ein- her ge-|flo- gen|Knäb- lein mit Pfeil und|
w: ||Da hört man rings er-|wa- chen Lie- der und|Scherz und La- chen:|"Lasst ihn in den|Na- chen!|Will er auf Her- zen|
 c4 c4 | d2 cB c2 A2 | G4 G4 | BBBB B2 d2 | B8 | GGGG G2 F2 | G4 z2 dd |1 B4 z2 dd | B4 z2 BB | %23
w: Bo- gen,|wär ger- ne mit- ge-|zo- gen.|Fa la la la la la|la,|fa la la la la la|la, fa la|la, fa la|la, fa la|
w: zie- len,|ei lasst das Knäb- lein|spie- len!|||||||
 B8 :|2 B4 z2 dd | B4 z2 BB | !fermata!B8 |] %27
w: la!|la, fa la|la, fa la|la!|
w: ||||
V:2
 G2 GG G2 A2 | G4 G4 | G2 GA G2 E2 | F4 F4 | GGGG G2 F2 | G2 d2 B2 G2 | z2 Bc d2 d2 | B8 :: %8
w: ||||Fa la la la la la|la la la la|fa la la la|la!|
 A2 AG A2 B2 | A2 A2 F2 FE | F2 G2 F2 F2 | G2 F2 A2 A2 | F4 F4 | F2 FG F2 D2 | G4 G4 | %15
w: |||||||
 B2 AB G2 d2 | B4 B4 | GGGG G2 F2 | G8 | BBBB B2 d2 | B2 dd B4 |1 z2 dd B4 | z2 dd B2 GG | G8 :|2 %24
w: |||||||* * * fa la|la!|
 z2 dd B4 | z2 dd B2 GG | !fermata!G8 |] %27
w: |fa la la la la|la!|
V:3
 D2 DD D2 D2 | D4 D4 | E2 EA, E2 E2 | D4 D4 | DDDD D2 D2 | D4 G,2 B,C | D2 E2 A,2 D2 | D8 :: %8
w: |||||* la, fa la|la la la la|la!|
 D2 DB, D2 D2 | D2 D2 z4 | z8 | D2 D2 E2 E2 | D4 D4 | D2 DB, D2 D2 | C4 C4 | B,2 CD E2 D2 | D4 D4 | %17
w: |||||||||
 DDDD D2 D2 | D8 | DDDD D2 D2 | D2 B,B, D4 |1 x2 B,B, D4 | x2 B,B, D4 | z2 B,B, B,4 :|2 %24
w: Fa la la la la la|la,|fa la la la la la|la, fa la la,|fa la la,|fa la la,|fa la la!|
 x2 B,B, D4 | x2 B,B, D2 D2 | !fermata!D8 |] %27
w: fa la la,|fa la la la|la!|
V:4
 B2 BB B2 A2 | B4 B4 | G2 GF E2 A2 | A4 A4 | GGGG G2 A2 | G2 Bc d4 | z2 GG G2 F2 | GFGA B4 :: z8 | %9
w: Fah- ren wir froh im|Na- chen,|Him- mel und Er- de|la- chen,|Fa la la la la la|la, fa la la,|fa la la la|la la la la la!||
w: Rei- hen uns Paar zu|Paa- ren,|das ist ein herr- lich|Fah- ren!||||||
 z4 d2 dB | d2 d2 d2 d2 | B2 B2 e2 A2 | A4 A4 | F2 FE D2 G2 | E4 E4 | G2 EG G2 F2 | G4 G4 | z8 | %18
w: "Sa- get, wo-|hin die Rei- se?"|Kommt ein- her ge-|flo- gen|Knäb- lein mit Pfeil und|Bo- gen,|wär ger- ne mit- ge-|zo- gen.||
w: Lie- der und|Scherz und La- chen:|"Lasst ihn in den|Na- chen!|Will er auf Her- zen|zie- len,|ei lasst das Knäb- lein|spie- len!||
 BBBB B2 d2 | B8 | z2 GG G4 |1 z2 GG G4 | z2 GG G4 | z2 DD D4 :|2 z2 GG G4 | z2 GG G2 G2 | %26
w: Fa la la la la la|la,|fa la la,|fa la la,|fa la la,|fa la la!|fa la la,|fa la la la|
w: ||||||||
 !fermata!G8 |] %27
w: la!|
w: |
V:5
 G,2 G,G, G,2 F,2 | G,4 G,4 | E,2 E,F, G,2 A,2 | D,4 D,4 | G,,G,,G,,G,, G,,2 D,2 | G,,4 z2 G,G, | %6
w: ||||Fa la la la la la|la, fa la|
w: ||||||
 G,2 E,2 D,2 D,2 | G,,8 :: D,2 D,E, D,2 G,,2 | D,2 D,2 D,2 D,E, | D,2 G,,2 D,2 D,2 | %11
w: la la la la|la!|Da tönt ein Stimm- lein|lei- se: * * *||
w: ||Da hört man rings er-|wa- chen * * *||
 G,2 B,2 A,2 A,2 | D,4 D,4 | D,2 D,E, F,2 G,2 | C,4 C,4 | G,,2 A,,G,, C,2 D,2 | G,,4 G,,4 | %17
w: ||||||
w: ||||||
 G,G,G,G, G,2 B,2 | G,8 | G,G,G,G, G,2 B,2 | G,4 z2 G,G, |1 G,4 z2 G,G, | G,4 z2 G,,G,, | G,,8 :|2 %24
w: Fa la la la la la|la,|fa la la la la la|la, fa la|la, fa la|la, fa la|la!|
w: |||||||
 G,4 z2 G,G, | G,4 z2 G,,G,, | !fermata!G,,8 |] %27
w: la, fa la|la, fa la|la!|
w: |||

